src/images/Beer.svg

<svg width="16" height="16" fill="none" xmlns="http://www.w3.org/2000/svg">
<path d="M12.8 14C12.4556 14 12.1 13.9375 11.7333 13.8125V14C11.7333 14.5521 11.525 15.0234 11.1083 15.4141C10.6917 15.8047 10.1889 16 9.6 16H3.2C2.61111 16 2.10833 15.8047 1.69167 15.4141C1.275 15.0234 1.06667 14.5521 1.06667 14V4.71875C0.744444 4.54167 0.486111 4.30208 0.291667 4C0.0972222 3.69792 0 3.36458 0 3C0 2.55208 0.144444 2.15365 0.433333 1.80469C0.722222 1.45573 1.08889 1.21875 1.53333 1.09375C1.77778 0.760417 2.09444 0.494792 2.48333 0.296875C2.87222 0.0989583 3.28889 0 3.73333 0C4.32222 0 4.85556 0.171875 5.33333 0.515625C5.7 0.171875 6.14444 0 6.66667 0C6.97778 0 7.27778 0.0729167 7.56667 0.21875C7.87778 0.0729167 8.2 0 8.53333 0C8.92222 0 9.28056 0.09375 9.60833 0.28125C9.93611 0.46875 10.1944 0.71875 10.3833 1.03125C10.5278 1.01042 10.6222 1 10.6667 1C11.2556 1 11.7583 1.19531 12.175 1.58594C12.5917 1.97656 12.8 2.44792 12.8 3C12.8 3.36458 12.6944 3.70833 12.4833 4.03125C12.6611 4.01042 12.7667 4 12.8 4C13.6889 4 14.4444 4.29167 15.0667 4.875C15.6889 5.45833 16 6.16667 16 7V11C16 11.8333 15.6861 12.5417 15.0583 13.125C14.4306 13.7083 13.6778 14 12.8 14ZM10.6667 2C10.4333 2 10.2167 2.06771 10.0167 2.20312C9.90556 2.06771 9.76667 2 9.6 2C9.6 1.72917 9.49444 1.49479 9.28333 1.29688C9.07222 1.09896 8.81944 1 8.525 1C8.23056 1 7.98056 1.09896 7.775 1.29688C7.56944 1.49479 7.46667 1.72917 7.46667 2C7.46667 1.625 7.39722 1.36458 7.25833 1.21875C7.11944 1.07292 6.92222 1 6.66667 1C6.4 1 6.11111 1.14323 5.8 1.42969C5.48889 1.71615 5.33333 2.07292 5.33333 2.5C5.33333 2.08333 5.17778 1.72917 4.86667 1.4375C4.55556 1.14583 4.17778 1 3.73333 1C3.38889 1 3.08056 1.09375 2.80833 1.28125C2.53611 1.46875 2.34444 1.71354 2.23333 2.01562C2.22222 2.01562 2.20556 2.01302 2.18333 2.00781C2.16111 2.0026 2.14444 2 2.13333 2C1.83333 2 1.58056 2.09896 1.375 2.29688C1.16944 2.49479 1.06667 2.73177 1.06667 3.00781C1.06667 3.28385 1.16944 3.51823 1.375 3.71094C1.58056 3.90365 1.83333 4 2.13333 4C2.4 4 2.63333 3.91667 2.83333 3.75C3.11111 3.91667 3.41111 4 3.73333 4C3.91111 4 4.09444 3.96875 4.28333 3.90625C4.27222 3.94792 4.26667 3.97917 4.26667 4C4.26667 4.10417 4.28889 4.19271 4.33333 4.26562C4.28889 4.34896 4.26667 4.42708 4.26667 4.5C4.26667 4.63542 4.31944 4.7526 4.425 4.85156C4.53056 4.95052 4.65556 5 4.8 5C4.94444 5 5.06944 4.95052 5.175 4.85156C5.28056 4.7526 5.33333 4.63542 5.33333 4.5C5.62222 4.5 5.99444 4.42188 6.45 4.26562C6.50556 4.48438 6.62778 4.66146 6.81667 4.79688C7.00556 4.93229 7.22222 5 7.46667 5C7.75556 5 8.00556 4.90365 8.21667 4.71094C8.42778 4.51823 8.53333 4.28125 8.53333 4C8.53333 3.85417 8.62222 3.69792 8.8 3.53125C8.97778 3.36458 9.15556 3.23438 9.33333 3.14062L9.6 3C9.6 3.28125 9.70278 3.51823 9.90833 3.71094C10.1139 3.90365 10.3639 4 10.6583 4C10.9528 4 11.2056 3.90365 11.4167 3.71094C11.6278 3.51823 11.7333 3.28385 11.7333 3.00781C11.7333 2.73177 11.6278 2.49479 11.4167 2.29688C11.2056 2.09896 10.9556 2 10.6667 2ZM13.8667 7.32812C13.8667 6.96354 13.7111 6.65104 13.4 6.39062C13.0889 6.13021 12.7111 6 12.2667 6C12.1 6 11.9222 6.02604 11.7333 6.07812V11.9219C11.9222 11.974 12.1 12 12.2667 12C12.7111 12 13.0889 11.8698 13.4 11.6094C13.7111 11.349 13.8667 11.0365 13.8667 10.6719V7.32812ZM7.46667 2V2.07812V2Z" fill="currentColor"/>
</svg>

<svg width="16" height="16" fill="none" xmlns="http://www.w3.org/2000/svg"><path d="M12.8 14c-.344 0-.7-.063-1.067-.188V14c0 .552-.208 1.023-.625 1.414-.416.39-.92.586-1.508.586H3.2a2.126 2.126 0 0 1-1.508-.586c-.417-.39-.625-.862-.625-1.414V4.719A2.12 2.12 0 0 1 .292 4 1.81 1.81 0 0 1 0 3c0-.448.144-.846.433-1.195a2.15 2.15 0 0 1 1.1-.711c.245-.334.561-.6.95-.797A2.717 2.717 0 0 1 3.733 0c.59 0 1.123.172 1.6.516A1.879 1.879 0 0 1 6.667 0c.31 0 .61.073.9.219C7.877.073 8.2 0 8.533 0c.39 0 .748.094 1.075.281.328.188.586.438.775.75.145-.02.24-.031.284-.031.589 0 1.091.195 1.508.586.417.39.625.862.625 1.414 0 .365-.106.708-.317 1.031.178-.02.284-.031.317-.031.889 0 1.644.292 2.267.875C15.689 5.458 16 6.167 16 7v4c0 .833-.314 1.542-.942 2.125-.627.583-1.38.875-2.258.875zM10.667 2c-.234 0-.45.068-.65.203A.518.518 0 0 0 9.6 2a.933.933 0 0 0-.317-.703A1.07 1.07 0 0 0 8.525 1c-.294 0-.544.099-.75.297A.944.944 0 0 0 7.467 2c0-.375-.07-.635-.209-.781C7.12 1.073 6.922 1 6.667 1c-.267 0-.556.143-.867.43a1.395 1.395 0 0 0-.467 1.07c0-.417-.155-.77-.466-1.063A1.597 1.597 0 0 0 3.733 1c-.344 0-.652.094-.925.281a1.505 1.505 0 0 0-.575.735.242.242 0 0 1-.05-.008.242.242 0 0 0-.05-.008c-.3 0-.552.099-.758.297a.952.952 0 0 0-.308.71c0 .277.102.511.308.704.206.193.458.289.758.289.267 0 .5-.083.7-.25a1.718 1.718 0 0 0 1.45.156.403.403 0 0 0-.016.094c0 .104.022.193.066.266a.501.501 0 0 0-.066.234c0 .135.052.253.158.352A.53.53 0 0 0 4.8 5a.53.53 0 0 0 .375-.148.466.466 0 0 0 .158-.352c.29 0 .661-.078 1.117-.234a.914.914 0 0 0 .367.53c.189.136.405.204.65.204.289 0 .539-.096.75-.29A.925.925 0 0 0 8.533 4c0-.146.09-.302.267-.469.178-.166.356-.297.533-.39L9.6 3c0 .281.103.518.308.71.206.194.456.29.75.29.295 0 .548-.096.759-.29a.917.917 0 0 0 .316-.702.94.94 0 0 0-.316-.711 1.06 1.06 0 0 0-.75-.297zm3.2 5.328c0-.364-.156-.677-.467-.937-.311-.26-.689-.391-1.133-.391a2.01 2.01 0 0 0-.534.078v5.844c.19.052.367.078.534.078.444 0 .822-.13 1.133-.39.311-.261.467-.573.467-.938V7.328zM7.467 2v.078V2z" fill="currentColor"/></svg>
